images/what-icon1.svg

<svg width="80" height="80" viewBox="0 0 80 80" fill="none" xmlns="http://www.w3.org/2000/svg">
<circle cx="40" cy="40" r="40" fill="#E9E9EC"/>
<path fill-rule="evenodd" clip-rule="evenodd" d="M60.219 27.8408H19.79C19.3018 27.8408 18.8498 28.0397 18.5243 28.3652C18.1989 28.6906 18 29.1336 18 29.6308V58.5061C18 58.9943 18.1989 59.4463 18.5243 59.7718C18.8498 60.0972 19.2928 60.2961 19.79 60.2961H60.219C60.7072 60.2961 61.1592 60.0972 61.4757 59.7718C61.8011 59.4463 62 59.0033 62 58.5061V29.6308C62 29.1426 61.8011 28.6906 61.4757 28.3652C61.1502 28.0397 60.7072 27.8408 60.219 27.8408ZM40.8453 46.6179V55.8934C40.8453 56.3545 40.4656 56.7342 40.0045 56.7342C39.5435 56.7342 39.1638 56.3545 39.1638 55.8934V46.6179C38.3049 46.2834 37.6992 45.4517 37.6992 44.4753C37.6992 43.2006 38.7298 42.17 40.0045 42.17C41.2792 42.17 42.3098 43.2006 42.3098 44.4753C42.3098 45.4517 41.7041 46.2834 40.8453 46.6179Z" fill="#0B7572"/>
<path fill-rule="evenodd" clip-rule="evenodd" d="M57.9498 31.4029C57.8051 26.6657 55.8253 22.3896 52.6973 19.2616C49.4517 16.016 44.9586 14 40.0044 14C35.0502 14 30.5571 16.007 27.3116 19.2616C24.1836 22.3896 22.2037 26.6657 22.0591 31.4029H57.9498ZM54.1437 28.1031C53.4838 25.6622 52.191 23.4202 50.3648 21.603C47.6075 18.8457 43.9099 17.3088 40.0044 17.3088C36.0989 17.3088 32.4014 18.8457 29.644 21.603C27.8179 23.4292 26.5251 25.6622 25.8651 28.1031H54.1437Z" fill="#0B7572"/>
</svg>

<svg width="80" height="80" fill="none" xmlns="http://www.w3.org/2000/svg"><circle cx="40" cy="40" r="40" fill="#E9E9EC"/><path fill-rule="evenodd" clip-rule="evenodd" d="M60.219 27.84H19.79A1.791 1.791 0 0 0 18 29.63v28.876a1.792 1.792 0 0 0 1.79 1.79h40.429c.488 0 .94-.199 1.257-.524.325-.326.524-.769.524-1.266V29.631a1.791 1.791 0 0 0-1.781-1.79ZM40.845 46.619v9.275c0 .462-.38.841-.84.841a.845.845 0 0 1-.841-.84v-9.276a2.303 2.303 0 0 1 .84-4.448 2.303 2.303 0 0 1 .841 4.448Z" fill="#0B7572"/><path fill-rule="evenodd" clip-rule="evenodd" d="M57.95 31.403a17.902 17.902 0 0 0-5.253-12.141A17.91 17.91 0 0 0 40.004 14a17.871 17.871 0 0 0-12.692 5.262 17.902 17.902 0 0 0-5.253 12.14h35.89Zm-3.806-3.3a14.504 14.504 0 0 0-3.78-6.5 14.597 14.597 0 0 0-10.36-4.294 14.597 14.597 0 0 0-10.36 4.294 14.554 14.554 0 0 0-3.779 6.5h28.279Z" fill="#0B7572"/></svg>
